picto/defibrillator-framed.svg

<svg class="color-immutable" width="30" height="30" viewBox="0 0 30 30" fill="none" xmlns="http://www.w3.org/2000/svg"><path d="M30 0H0V30H30V0Z" fill="#237F52"/><path d="M25.5 3C26.325 3 27 3.675 27 4.5V25.5C27 26.325 26.325 27 25.5 27H4.5C3.675 27 3 26.325 3 25.5V4.5C3 3.675 3.675 3 4.5 3H25.5ZM25.5 2.625H4.5C3.46613 2.625 2.625 3.46613 2.625 4.5V25.5C2.625 26.5339 3.46613 27.375 4.5 27.375H25.5C26.5339 27.375 27.375 26.5339 27.375 25.5V4.5C27.375 3.46613 26.5339 2.625 25.5 2.625Z" fill="white"/><path d="M23.9988 8.06355H21.9353V6H19.7852V8.06355H17.7217V10.2135H19.7852V12.2771H21.9353V10.2135H23.9988V8.06355Z" fill="white"/><path d="M15.9792 11.6334C13.5568 11.4103 12.728 13.5298 12.728 13.5298H12.7276C12.7276 13.5298 11.8992 11.4103 9.47675 11.6334C7.0544 11.8565 5.5682 13.964 6.11397 16.5578C6.28902 17.3892 7.0292 18.8558 8.22177 20.2392C9.69815 21.9517 11.758 23.5595 12.7276 24.0002H12.728C13.6977 23.5595 15.7577 21.9517 17.2342 20.2392C18.4264 18.8558 19.1667 17.3892 19.3418 16.5578C19.8876 13.964 18.4014 11.8565 15.9792 11.6334ZM11.3313 21.3632L12.6018 18.2472H10.7263L14.3067 14.2541L12.8238 17.4002H14.7297L11.3313 21.3632Z" fill="white"/></svg>

<svg class="color-immutable" width="30" height="30" viewBox="0 0 30 30" fill="none" xmlns="http://www.w3.org/2000/svg"><g clip-path="url(#a)"><path d="M30 0H0v30h30V0Z" fill="#237F52"/><path d="M25.5 3c.825 0 1.5.675 1.5 1.5v21c0 .825-.675 1.5-1.5 1.5h-21c-.825 0-1.5-.675-1.5-1.5v-21C3 3.675 3.675 3 4.5 3h21Zm0-.375h-21A1.877 1.877 0 0 0 2.625 4.5v21c0 1.034.841 1.875 1.875 1.875h21a1.877 1.877 0 0 0 1.875-1.875v-21A1.877 1.877 0 0 0 25.5 2.625Z" fill="#fff"/><path d="M23.999 8.064h-2.064V6h-2.15v2.064h-2.063v2.15h2.063v2.063h2.15v-2.063H24v-2.15ZM15.98 11.633c-2.423-.223-3.252 1.897-3.252 1.897s-.829-2.12-3.251-1.897c-2.423.224-3.909 2.331-3.363 4.925.175.831.915 2.298 2.108 3.681 1.476 1.713 3.536 3.32 4.506 3.761.97-.44 3.03-2.048 4.506-3.76 1.192-1.384 1.933-2.85 2.108-3.682.546-2.594-.94-4.701-3.363-4.925Zm-4.649 9.73 1.27-3.116h-1.875l3.58-3.993-1.482 3.146h1.906l-3.399 3.963Z" fill="#fff"/></g><defs><clipPath id="a"><path fill="#fff" d="M0 0h30v30H0z"/></clipPath></defs></svg>
